X:1     %Music
T:Mary Ann
B:Singing Together, Summer 1975, BBC Publications
F:http://www.folkinfo.org/songs
M:C     %Meter
L:1/8     %
K:F
A3 c-c4|F3 A3 A-A2 |A2 GB5-|B8
w:All day,_ all night,_ Miss Ma-ry Ann,_
G3 B-B2B2 | E3 G-G4|G2 FA-A4-|A8
w:Down by the_ sea-_side, sift-ing sand,_
A2 Ac-c2c2 |F3 A-A2A2 | A2 GB-B5-|B8
w:All the lit-_tle chil-dren_ love Ma-ry Ann, _
G3 B-B2B2 |E3 G-G2G2 |G2 FF-F4-|F6 |]
w:You too,_ will love her,_ Miss Ma-ry Ann._